Newaita-dark/actions/scalable/view-statistics.svg

<?xml version="1.0" encoding="UTF-8"?>
<svg xmlns="http://www.w3.org/2000/svg" xmlns:xlink="http://www.w3.org/1999/xlink" width="512pt" height="512pt" viewBox="0 0 512 512" version="1.1">
<g id="surface1">
<path style=" stroke:none;fill-rule:nonzero;fill:rgb(55.29412%,43.137255%,38.82353%);fill-opacity:1;" d="M 63.507812 279.191406 C 51.777344 279.191406 42.335938 288.632812 42.335938 300.363281 L 42.335938 490.878906 L 127.011719 490.878906 L 127.011719 300.363281 C 127.011719 288.632812 117.570312 279.191406 105.84375 279.191406 Z M 63.507812 279.191406 "/>
<path style=" stroke:none;fill-rule:nonzero;fill:rgb(69.01961%,74.509805%,77.254903%);fill-opacity:1;" d="M 232.855469 173.351562 C 221.128906 173.351562 211.6875 182.789062 211.6875 194.519531 L 211.6875 490.878906 L 296.363281 490.878906 L 296.363281 194.519531 C 296.363281 182.789062 286.921875 173.351562 275.191406 173.351562 Z M 232.855469 173.351562 "/>
<path style=" stroke:none;fill-rule:nonzero;fill:rgb(100%,65.490198%,14.901961%);fill-opacity:1;" d="M 402.203125 25.167969 C 390.476562 25.167969 390.394531 39.253906 381.035156 44.8125 L 381.035156 490.878906 L 465.710938 490.878906 L 465.710938 44.8125 C 465.710938 33.929688 456.269531 25.167969 444.542969 25.167969 Z M 402.203125 25.167969 "/>
</g>
</svg>

<svg xmlns="http://www.w3.org/2000/svg" width="512pt" height="512pt" viewBox="0 0 512 512"><path d="M63.508 279.191a21.124 21.124 0 0 0-21.172 21.172V490.88h84.676V300.363a21.123 21.123 0 0 0-21.168-21.172zm0 0" fill="#8d6e63"/><path d="M232.855 173.352a21.12 21.12 0 0 0-21.167 21.168v296.359h84.675v-296.36a21.12 21.12 0 0 0-21.172-21.167zm0 0" fill="#b0bec5"/><path d="M402.203 25.168c-11.726 0-11.808 14.086-21.168 19.645v446.066h84.676V44.812c0-10.882-9.441-19.644-21.168-19.644zm0 0" fill="#ffa726"/></svg>
